fs/person_key_20_regular.svg

<svg viewBox="0 0 20 20" fill="none" xmlns="http://www.w3.org/2000/svg" height="1em" width="1em">
  <path d="M10 2C7.79086 2 6 3.79086 6 6C6 8.20914 7.79086 10 10 10C12.2091 10 14 8.20914 14 6C14 3.79086 12.2091 2 10 2ZM7 6C7 4.34315 8.34315 3 10 3C11.6569 3 13 4.34315 13 6C13 7.65685 11.6569 9 10 9C8.34315 9 7 7.65685 7 6ZM5.00873 11C3.90315 11 3 11.8869 3 13C3 14.6912 3.83281 15.9663 5.13499 16.7966C6.18322 17.465 7.52984 17.8449 9 17.9612V17C9 16.9859 9.0002 16.9719 9.00058 16.9579C7.68248 16.8441 6.53214 16.5014 5.67262 15.9534C4.62226 15.2837 4 14.3088 4 13C4 12.4467 4.44786 12 5.00873 12L12.1149 12C12.1684 11.7891 12.2407 11.5829 12.3323 11.3821C12.3922 11.2506 12.4584 11.1232 12.5306 11L5.00873 11ZM10.1484 18.8516C10.2474 18.9505 10.3646 19 10.5 19H12.5C12.6146 18.9948 12.7057 18.9714 12.7734 18.9297C12.8411 18.888 12.8906 18.8307 12.9219 18.7578C12.9531 18.6849 12.974 18.6068 12.9844 18.5234C12.9948 18.4401 13 18.3542 13 18.2656V18C13.2396 17.9948 13.4271 17.987 13.5625 17.9766C13.6979 17.9661 13.7995 17.9271 13.8672 17.8594C13.9349 17.7917 13.974 17.6927 13.9844 17.5625C13.9948 17.4323 14 17.2448 14 17H14.5C14.6094 17 14.6979 16.9766 14.7656 16.9297C14.8333 16.8828 14.8854 16.8255 14.9219 16.7578C14.9583 16.6901 14.9818 16.612 14.9922 16.5234C15.0026 16.4349 15.0078 16.3438 15.0078 16.25C15.0026 16.1719 15 16.0964 15 16.0234V15.8281C15.1719 15.8906 15.3464 15.9349 15.5234 15.9609C15.7005 15.987 15.8802 16 16.0625 16C16.4792 15.9948 16.862 15.9141 17.2109 15.7578C17.5599 15.6016 17.8698 15.3828 18.1406 15.1016C18.4115 14.8203 18.6224 14.5 18.7734 14.1406C18.9245 13.7812 19 13.401 19 13C19 12.5833 18.9219 12.1927 18.7656 11.8281C18.6094 11.4635 18.3958 11.1458 18.125 10.875C17.8542 10.6042 17.5365 10.3906 17.1719 10.2344C16.8073 10.0781 16.4167 10 16 10C15.5938 10.0104 15.2109 10.0885 14.8516 10.2344C14.4922 10.3802 14.1745 10.5885 13.8984 10.8594C13.6224 11.1302 13.4036 11.4427 13.2422 11.7969C13.0807 12.151 13 12.5312 13 12.9375C13 13.1823 13.0286 13.4401 13.0859 13.7109L10.1484 16.6484C10.0495 16.7474 10 16.8646 10 17V18.5C10 18.6354 10.0495 18.7526 10.1484 18.8516ZM17.2812 11.7188C17.4271 11.8646 17.5 12.0417 17.5 12.25C17.5 12.4583 17.4271 12.6354 17.2812 12.7812C17.1354 12.9271 16.9583 13 16.75 13C16.5417 13 16.3646 12.9271 16.2188 12.7812C16.0729 12.6354 16 12.4583 16 12.25C16 12.0417 16.0729 11.8646 16.2188 11.7188C16.3646 11.5729 16.5417 11.5 16.75 11.5C16.9583 11.5 17.1354 11.5729 17.2812 11.7188Z" fill="#212121"/>
</svg>

<svg viewBox="0 0 20 20" fill="none" xmlns="http://www.w3.org/2000/svg" height="1em" width="1em">
  <path d="M10 2a4 4 0 1 0 0 8 4 4 0 0 0 0-8ZM7 6a3 3 0 1 1 6 0 3 3 0 0 1-6 0Zm-1.991 5A2.001 2.001 0 0 0 3 13c0 1.691.833 2.966 2.135 3.797C6.183 17.465 7.53 17.845 9 17.96v-1.003c-1.318-.114-2.468-.457-3.327-1.005C4.623 15.283 4 14.31 4 13c0-.553.448-1 1.009-1h7.106a3.69 3.69 0 0 1 .416-1H5.009Zm5.14 7.852A.48.48 0 0 0 10.5 19h2a.569.569 0 0 0 .273-.07.368.368 0 0 0 .149-.172.864.864 0 0 0 .062-.235 2.15 2.15 0 0 0 .016-.257V18c.24-.005.427-.013.563-.023a.468.468 0 0 0 .304-.118.457.457 0 0 0 .117-.297c.01-.13.016-.317.016-.562h.5c.11 0 .198-.023.266-.07a.492.492 0 0 0 .156-.172.65.65 0 0 0 .07-.235c.01-.088.016-.18.016-.273a3.412 3.412 0 0 1-.008-.227v-.195c.172.063.346.107.523.133.178.026.357.039.54.039a2.866 2.866 0 0 0 2.078-.898c.27-.282.481-.602.632-.961.151-.36.227-.74.227-1.141 0-.417-.078-.807-.234-1.172a3.009 3.009 0 0 0-.641-.953 3.009 3.009 0 0 0-.953-.64A2.942 2.942 0 0 0 16 10a3.23 3.23 0 0 0-1.148.234 2.91 2.91 0 0 0-.954.625 3.124 3.124 0 0 0-.656.938 2.716 2.716 0 0 0-.242 1.14c0 .245.029.503.086.774l-2.938 2.937A.48.48 0 0 0 10 17v1.5c0 .135.05.253.148.352Zm7.132-7.133a.723.723 0 0 1 .219.531.723.723 0 0 1-.219.531.723.723 0 0 1-.531.219.723.723 0 0 1-.531-.219.723.723 0 0 1-.219-.531c0-.208.073-.385.219-.531a.723.723 0 0 1 .531-.219c.208 0 .385.073.531.219Z" fill="#212121"/>
</svg>
